public/images/icons/computer.svg

<svg width="18" height="18" viewBox="0 0 18 18" fill="none" xmlns="http://www.w3.org/2000/svg">
<path d="M3 3.75V12H15V3.75H3ZM1.5 3.00525C1.5 2.58825 1.84125 2.25 2.244 2.25H15.756C16.167 2.25 16.5 2.58675 16.5 3.00525V13.5H1.5V3.00525ZM0.75 14.25H17.25V15.75H0.75V14.25Z" fill="#B1B1B1"/>
</svg>

<svg width="18" height="18" fill="none" xmlns="http://www.w3.org/2000/svg"><path d="M3 3.75V12h12V3.75H3zm-1.5-.745c0-.417.341-.755.744-.755h13.512c.411 0 .744.337.744.755V13.5h-15V3.005zM.75 14.25h16.5v1.5H.75v-1.5z" fill="#B1B1B1"/></svg>
